X: 30720
T: Orion's Belt
R: reel
M: 4/4
K: Edorian
|:A|Beed e2 dB|AFFE DB,A,D|B,EED EFGA|B2 ec dBAd|
Beed e2 dB|AFFE DB,A,D|B,EED EFGA|B2 AF GEE:|
|:D|Eeed e3 f|g2 fg efga|b2 ab geed|B2 ec dBAd|
Beed e3 f|g2 fg efga|b2 ab geed|B2 AB GEE:|
|:F|G2 BG DGBG|F2 AF DFAF|EFGA B2 ec|dBAd B2 AB|
G2 BG DGBG|F2 AF DFAF|EFGA B2 AB|GEED E3:|

